X: 15440
T: Glen Of Aherlow, The
R: reel
M: 4/4
K: Edorian
B2AF BFAF|E3F EDBd|B2AF BFAF|DFAF FE E2|
B2AF BFAF|E3F EDBA|BE E2 DEFA|BdAF FEFA|
B2AF BFAF|E3F EDBd|B2AF BFAF|DFAF FE E2|
B2 AF B2 AF|EBAF EDBA|BE E2 DEFA|BdAF FE E2||
eB B2 efge|f3e defd|eB B2 e2 fe|dBAF Be e2|
eB B2 egfe|f3e defd|B3d egfe|dBAF Be e2|
eB B2 efge|f3e defd|eB B2 e2 fe|dBAF Be e2|
e2 b2 efga|f3e defd|B3d e2 fe|dBAF Be e2||
B2AF BFAF|E3F EDBD|B2AF BFAF|DFAF FE E2|
B2AF BFAF|E3F EDBA|BE E2 DEFA|BdAF FE E2|
B2 AF B2 AF|EBAF EDBA|B2 AF BFAF|DFEF FE E2|
B2 AF BFAF|EBAF EDBA|BE E2 DEFA|BdAF g3f||
eB B2 efga|f3e defd|eB B2 e2 fe|dBAF Be e2|
e2 b2 efga|f3e defd|B3d egfe|dBAF Be e2|
eB B2 efga|f3e defd|eB B2 e2 fe|dBAF Be e2|
eB B2 efga|f3e defd|B3d e2 fe|dBAF Be e2||
B2 AF BFAF|E3F EDBd|B2 AF BFAF|DFAF FE E2|
B2 B2 B2 AF|EDBA EDFA|BE E2 DEFA|BdAF FE E2|
B2 AF BFAF|e3f edBd|B2 AF BFAF|DFAF FE E2|
B3d BdAF|EDBA EDFA|B2 AF DEFA|BdAF GEEf||
g4 g3a/g/|f4 f3g/f/|eB B2 e2 fe|dBAF Be e2|
e2 b2 efga|f3e defd|B2 Ad egfe|dBAF Be e2|
eB B2 gB B2|fB B2 eB B2|eB B2 e2 fe|dBAF b3a/f/|
eB B2 efga|z3e defd|B3d e2 fe|dBAF e2 e2||

